X:1
T: Ben Butler's Reel
C:
R:Reel
Q:232
K:A
M:4/4
L:1/8
|:((3EFG)|AE cA GE dB|AF cA fe dB|AE cA GE dB|GE FG A2:|
|:c2|BA GF EG Bd|cA ec ae dc|BA GF EG Bd|cd BG A2:|
|:ee|^df Af df Af|eB ge ag fe|^df Af df Af|eg f^d e2:|
|:e2|ed BG ED B,D|CE Ac ec ae|ed BG ED B,D|CA GB A2:|
